X:69
T:Merrily Kissed the Quaker
M:6/8
R:Slide
K:G
GAB D2B | c2A BGE | GAB DEG | A2A AGE |
GAB D2B | c2A BGE | GAB DEF |[1 G2G GFE :|[2 G2G G2A |]
|: BGG AGG | BGG AGE | GAB DEG | A2A AGA |
BGG AGG | BGG AGE | GAB DEF |[1 G2G G2A :|[2 G2G G3 |]
|: g2g a2a | bag edB | g2g gab | a2a agf |
g3 f3 | efe dBA | GAB DEF | G2G G3 :|

%%newpage
%%scale .62
%%staffsep 20

